X:143
T:Cronin's Hornpipe
B:Terry "Cuz" Teahan "Sliabh Luachra on Parade" 1980
Z:Patrick Cavanagh
M:4/4
L:1/8
R:Hornpipe
K:D
AF | DEFF AFAB | dedB ABde | fedB AFDE | FEED E/F/GFE | 
DEFF AFAB | d2dB ABde | fedB AFEF | D2D2 D2 :| 
B/c/d | ecAc ABde | fdBA B2de | fedB AFDE | FEED E/F/GFE | 
DEFF AFAB | d2dB ABde | fedB AFEF | D2D2 D2 :|| 

